X: 42426
T: West Mabou
R: reel
M: 4/4
K: Gmajor
e|g2 dg e2 dB|g2 dg eaaf|g2 dg e2 dB|A2 GA BGGe|
g2 dg e2 df|g2 dg eaag|bgaf gfed|efga babg|
eddB dedB|~A2 GA BAAg|eddB dedB|~A2 GA BGGg|
eddB dedB|~A2 GA BAAe|g2 bg ~e2 dB|A2 GA BGG||

